icons/actions/22/draw-text.svg

<svg xmlns="http://www.w3.org/2000/svg" viewBox="0 0 22 22">
  <defs id="defs3051">
    <style type="text/css" id="current-color-scheme">
      .ColorScheme-Text {
        color:#4d4d4d;
      }
      </style>
  </defs>
 <path 
    style="fill:currentColor;fill-opacity:1;stroke:none" 
	d="m3 3v3h1v10h-1v3h3v-1h10v1h3v-3h-1v-10h1v-3h-3v1h-10v-1h-3m1 1h1v1h-1v-1m13 0h1v1h-1v-1m-11 1h10v1h1v10h-1v1h-10v-1h-1v-10h1v-1m0 2v2h4v7h2v-7h4v-2h-10m-2 10h1v1h-1v-1m13 0h1v1h-1v-1"
    class="ColorScheme-Text"
    />  
</svg>

<?xml version="1.0"?>
<!-- Created with Inkscape (http://www.inkscape.org/) -->
<svg xmlns:dc="http://purl.org/dc/elements/1.1/" xmlns:cc="http://creativecommons.org/ns#" xmlns:rdf="http://www.w3.org/1999/02/22-rdf-syntax-ns#" xmlns:svg="http://www.w3.org/2000/svg" xmlns="http://www.w3.org/2000/svg" xmlns:sodipodi="http://sodipodi.sourceforge.net/DTD/sodipodi-0.dtd" xmlns:inkscape="http://www.inkscape.org/namespaces/inkscape" width="22" height="22" id="svg3760" version="1.1" inkscape:version="0.91 r13725" sodipodi:docname="draw-text.svg">
  <defs id="defs3762">
    <style type="text/css" id="current-color-scheme">
      .ColorScheme-Text {
        color:#4d4d4d;
      }
      .ColorScheme-Background {
        color:#eff0f1;
      }
      .ColorScheme-Highlight {
        color:#3daee9;
      }
      .ColorScheme-ViewText {
        color:#31363b;
      }
      .ColorScheme-ViewBackground {
        color:#fcfcfc;
      }
      .ColorScheme-ViewHover {
        color:#93cee9;
      }
      .ColorScheme-ViewFocus{
        color:#3daee9;
      }
      .ColorScheme-ButtonText {
        color:#31363b;
      }
      .ColorScheme-ButtonBackground {
        color:#eff0f1;
      }
      .ColorScheme-ButtonHover {
        color:#93cee9;
      }
      .ColorScheme-ButtonFocus{
        color:#3daee9;
      }
      </style>
  </defs>
  <sodipodi:namedview id="base" pagecolor="#ffffff" bordercolor="#666666" borderopacity="1.0" inkscape:pageopacity="0.0" inkscape:pageshadow="2" inkscape:zoom="34.818182" inkscape:cx="11" inkscape:cy="11" inkscape:document-units="px" inkscape:current-layer="layer1" showgrid="true" fit-margin-top="0" fit-margin-left="0" fit-margin-right="0" fit-margin-bottom="0" inkscape:window-width="2560" inkscape:window-height="955" inkscape:window-x="0" inkscape:window-y="35" inkscape:window-maximized="1" inkscape:showpageshadow="false">
    <sodipodi:guide position="-1,23" orientation="24,0" id="guide4115"/>
    <sodipodi:guide position="-1,-1" orientation="0,24" id="guide4117"/>
    <sodipodi:guide position="23,-1" orientation="-24,0" id="guide4119"/>
    <sodipodi:guide position="23,23" orientation="0,-24" id="guide4121"/>
    <sodipodi:guide position="2,20" orientation="18,0" id="guide4123"/>
    <sodipodi:guide position="2,2" orientation="0,18" id="guide4125"/>
    <sodipodi:guide position="20,2" orientation="-18,0" id="guide4127"/>
    <sodipodi:guide position="20,20" orientation="0,-18" id="guide4129"/>
    <sodipodi:guide position="3,19" orientation="16,0" id="guide4131"/>
    <sodipodi:guide position="3,3" orientation="0,16" id="guide4133"/>
    <sodipodi:guide position="19,3" orientation="-16,0" id="guide4135"/>
    <sodipodi:guide position="19,19" orientation="0,-16" id="guide4137"/>
    <inkscape:grid type="xygrid" id="grid4139" originx="-0.99998557" originy="-1.0000118"/>
  </sodipodi:namedview>
  <metadata id="metadata3765">
    <rdf:RDF>
      <cc:Work rdf:about="">
        <dc:format>image/svg+xml</dc:format>
        <dc:type rdf:resource="http://purl.org/dc/dcmitype/StillImage"/>
        <dc:title/>
      </cc:Work>
    </rdf:RDF>
  </metadata>
  <g inkscape:label="Capa 1" inkscape:groupmode="layer" id="layer1" transform="translate(-551.28571,-607.64789)">
    <path style="opacity:1;fill:currentColor;fill-opacity:1;stroke:none" d="M 3 3 L 3 6 L 4 6 L 4 16 L 3 16 L 3 19 L 6 19 L 6 18 L 16 18 L 16 19 L 19 19 L 19 16 L 18 16 L 18 6 L 19 6 L 19 3 L 16 3 L 16 4 L 6 4 L 6 3 L 3 3 z M 4 4 L 5 4 L 5 5 L 4 5 L 4 4 z M 17 4 L 18 4 L 18 5 L 17 5 L 17 4 z M 6 5 L 16 5 L 16 6 L 17 6 L 17 16 L 16 16 L 16 17 L 6 17 L 6 16 L 5 16 L 5 6 L 6 6 L 6 5 z M 6 7 L 6 9 L 10 9 L 10 16 L 12 16 L 12 9 L 16 9 L 16 7 L 6 7 z M 4 17 L 5 17 L 5 18 L 4 18 L 4 17 z M 17 17 L 18 17 L 18 18 L 17 18 L 17 17 z " transform="translate(551.28571,607.64789)" id="rect4112" class="ColorScheme-Text"/>
  </g>
</svg>
